modules/coreui-icons-free/icons/camera-roll.svg

<!-- Generated by IcoMoon.io -->
<svg version="1.1" xmlns="http://www.w3.org/2000/svg" width="24" height="24" viewBox="0 0 24 24">
<title>camera-roll</title>
<path d="M15.375 6.375v-1.5c-0.001-0.828-0.672-1.499-1.5-1.5h-0.75v-1.125c-0.001-0.828-0.672-1.499-1.5-1.5h-7.125c-0.828 0.001-1.499 0.672-1.5 1.5v1.125h-0.75c-0.828 0.001-1.499 0.672-1.5 1.5v16.875c0.001 0.828 0.672 1.499 1.5 1.5h11.625c0.828-0.001 1.499-0.672 1.5-1.5v-1.125h7.875v-14.25zM21.75 19.125h-7.875v2.625h-11.625v-16.875h2.25v-2.625h7.125v2.625h2.25v3h7.875z"></path>
<path d="M18.375 9.375h1.875v1.875h-1.875v-1.875z"></path>
<path d="M15 9.375h1.875v1.875h-1.875v-1.875z"></path>
<path d="M11.625 9.375h1.875v1.875h-1.875v-1.875z"></path>
<path d="M18.375 15.75h1.875v1.875h-1.875v-1.875z"></path>
<path d="M15 15.75h1.875v1.875h-1.875v-1.875z"></path>
<path d="M11.625 15.75h1.875v1.875h-1.875v-1.875z"></path>
<path d="M8.25 9.375h1.875v1.875h-1.875v-1.875z"></path>
<path d="M8.25 15.75h1.875v1.875h-1.875v-1.875z"></path>
</svg>

<svg xmlns="http://www.w3.org/2000/svg" width="24" height="24" viewBox="0 0 24 24"><path d="M15.375 6.375v-1.5a1.502 1.502 0 00-1.5-1.5h-.75V2.25a1.502 1.502 0 00-1.5-1.5H4.5A1.502 1.502 0 003 2.25v1.125h-.75a1.502 1.502 0 00-1.5 1.5V21.75a1.502 1.502 0 001.5 1.5h11.625a1.502 1.502 0 001.5-1.5v-1.125h7.875V6.375zm6.375 12.75h-7.875v2.625H2.25V4.875H4.5V2.25h7.125v2.625h2.25v3h7.875z"/><path d="M18.375 9.375h1.875v1.875h-1.875V9.375zM15 9.375h1.875v1.875H15V9.375zM11.625 9.375H13.5v1.875h-1.875V9.375zM18.375 15.75h1.875v1.875h-1.875V15.75zM15 15.75h1.875v1.875H15V15.75zM11.625 15.75H13.5v1.875h-1.875V15.75zM8.25 9.375h1.875v1.875H8.25V9.375zM8.25 15.75h1.875v1.875H8.25V15.75z"/></svg>
